!!!COM: Palestrina, Giovanni Perluigi da
!!!OPR: Missa De Beata Marie Virginis (II)
!!!OMD: Sanctus rpt
!!!OTL: Pleni
**kern	**kern	**kern
*Ibass	*Itenor	*Itenor
!Bassus	!Tenor 2	!Tenor 1
*clefF4	*clefGv2	*clefGv2
*k[]	*k[]	*k[]
*G:mix	*G:mix	*G:mix
*M4/2	*M4/2	*M4/2
=29	=29	=29
0r	1G	0r
.	2B	.
.	2c	.
=30	=30	=30
1G	2.d	0r
.	8e	.
.	8f#	.
2B	1g	.
2c	.	.
=31	=31	=31
2.d	2f	0r
.	2d	.
8c	.	.
8B	.	.
2A	2f	.
2c	2e	.
=32	=32	=32
2.B	2.d	1G
4A	4c	.
4G	2d	2B
4F	.	.
2E	[2e	2c
=33	=33	=33
2F	4e]	2.d
.	4d	.
2G	1d	.
.	.	8e
.	.	8f#
1E	.	1g
.	2c#	.
=34	=34	=34
1D	2d	2f
.	1a	2d
1r	.	2f
.	2g	2e
=35	=35	=35
2r	2f	2.d
2D	1a	.
.	.	4c
2F	.	2d
2G	4g	2e
.	4f	.
=36	=36	=36
2A	2e	2c#
2B-	2d	1d
2G	1e	.
2A	.	2c#
=37	=37	=37
2D	0d	1d
2G	.	.
2G	.	2r
2D	.	2d
=38	=38	=38
1.G	2r	2d
.	2d	2G
.	2d	[1g
2E	2G	.
=39	=39	=39
1A	1.c	2g]
.	.	2f
1G	.	2e
.	4B	4d
.	4A	4c
=40	=40	=40
1r	2B	2d
.	2c	1c
1G	2.d	.
.	.	4B
.	4c	4A
=41	=41	=41
2G	2d	2B
2C	2e	2c
[1D	[1c	2.A
.	.	4B
=42	=42	=42
2D]	1c]	4c
.	.	4d
4E	.	1e
4D	.	.
2E	1r	.
2F#	.	4d
.	.	4c
=43	=43	=43
2.G	2r	2e
.	2g	2.d
4F	.	.
2E	2g	.
.	.	4c
2F	2c	[2c
=44	=44	=44
1D	1.f	2c]
.	.	2B
2.A	.	1c
.	4e	.
4B	4d	.
=45	=45	=45
2c	2e	1r
2d	2f#	.
1G	2.g	2r
.	.	2g
.	4f	.
=46	=46	=46
1r	4e	2g
.	4d	.
.	2e	2c
2r	1a	[1f
2d	.	.
=47	=47	=47
2d	2a	2f]
2G	2.g	4e
.	.	4d
[1c	.	2.e
.	4f	.
.	4e	.
.	4d	4f#
=48	=48	=48
2c]	2e	0g
4B	4d	.
4A	4c	.
2B	2d	.
2c	[2e	.
=49	=49	=49
1d	4e]	1f
.	4d	.
.	1d	.
1A	.	1e
.	2c#	.
=50	=50	=50
[0D	[0d	[0d
=51	=51	=51
0D]	0d]	0d]
*-	*-	*-
!!!CDT: 1525/^1526/-1594/2/2
!!!OCY: Italia
!!!AGN: Mass (Paraphrase)
!!!AST: renaissance, vocal
!!!ASW: Gregorian Mass
!!!PWK: Masses, Book Mantuan I
!!!RNB: Cadence finals: D
!!!YOR: Le Opere Complete, v. 18, p. 126
!!!YOO: Rome, Italy: Fratelli Scalera
!!!END: 1992//
!!!EED: John Miller
!!!YEC: Copyright 2000, John Miller
!!!YEN: United States of America
!!!YEM: Rights to all derivative electronic formats reserved.
!!!YEM: Refer to licensing agreement for further details.
!!!YEM: This file must be accompanied by the licensing agreement.
!!!YEM: A copy of the licensing agreement may be found at http://www.music-cog.ohio-state.edu/HumdrumDatabases/Palestrina/license.txt
!!!EMD: converted to Humdrum by Bret Aarden
